site/assets/images/header-design.svg

<?xml version="1.0" encoding="UTF-8" standalone="no"?>
<svg width="54px" height="63px" viewBox="0 0 54 63" version="1.1" xmlns="http://www.w3.org/2000/svg" xmlns:xlink="http://www.w3.org/1999/xlink" xmlns:sketch="http://www.bohemiancoding.com/sketch/ns">
    <path d="M0.517475,41.506198 C0.517475,41.506198 3.317475,29.606198 7.017475,24.606198 C10.017475,20.606198 20.617475,14.606198 20.617475,14.606198 C20.617475,14.606198 29.917475,23.506198 31.917475,28.506198 C34.317475,34.506198 33.917475,47.706198 33.917475,47.706198 C33.917475,47.706198 21.717475,49.706198 15.817475,48.706198 C10.517475,47.706198 0.417475,41.706198 0.417475,41.706198" id="Fill-1" fill="#A4D8FF" sketch:type="MSShapeGroup"></path>
    <path d="M51.317475,50.006198 L22.417475,61.906198 C22.417475,61.906198 21.917475,62.106198 21.517475,62.106198 C21.517475,62.106198 24.217475,57.006198 26.417475,54.406198 C28.317475,52.206198 34.017475,47.906198 34.017475,47.906198 C34.017475,47.906198 40.517475,46.706198 43.617475,47.006198 C46.417475,47.306198 52.017475,49.606198 52.017475,49.606198 C51.717475,49.806198 51.317475,50.006198 51.317475,50.006198 L51.317475,50.006198 Z" id="Fill-2" fill="#49AAF3" sketch:type="MSShapeGroup"></path>
    <path d="M42.517475,48.606198 C39.717475,48.306198 33.917475,47.806198 33.917475,47.806198 C33.917475,47.806198 37.717475,39.906198 40.517475,36.006198 C44.017475,31.006198 53.017475,21.106198 53.017475,21.106198 C53.117475,21.406198 53.117475,21.806198 53.117475,21.806198 L52.417475,48.406198 C52.417475,48.406198 52.417475,49.206198 51.917475,49.606198 C51.917475,49.506198 45.717475,48.906198 42.517475,48.606198 L42.517475,48.606198 Z" id="Fill-3" fill="#67BEFE" sketch:type="MSShapeGroup"></path>
    <path d="M35.117475,23.506198 C30.017475,22.506198 20.617475,14.606198 20.617475,14.606198 C20.617475,14.606198 21.917475,10.206198 23.517475,8.006198 C25.417475,5.406198 31.117475,0.206198 31.117475,0.206198 C31.717475,0.206198 32.117475,0.606198 32.117475,0.606198 L52.717475,20.306198 C52.717475,20.306198 52.917475,20.506198 53.017475,20.806198 C53.017475,20.706198 40.717475,24.606198 35.117475,23.506198 L35.117475,23.506198 Z" id="Fill-4" fill="#80C9FF" sketch:type="MSShapeGroup"></path>
    <path d="M20.317475,14.806198 L9.117475,18.306198 L0.717475,12.406198 C0.717475,12.406198 0.917475,12.006198 1.517475,11.806198 L30.017475,0.306198 C30.017475,0.306198 30.417475,0.106198 30.917475,0.206198 L20.317475,14.806198 L20.317475,14.806198 Z" id="Fill-5" fill="#D7F2FF" sketch:type="MSShapeGroup"></path>
    <path d="M0.817475,12.306198 L20.617475,14.506198 L0.517475,41.406198 C0.517475,41.406198 0.417475,41.206198 0.417475,40.906198 L0.417475,13.506198 C0.417475,13.506198 0.417475,12.806198 0.817475,12.306198" id="Fill-6" fill="#BDE6FF" sketch:type="MSShapeGroup"></path>
    <path d="M53.017475,20.706198 L20.617475,14.606198 L34.017475,47.706198 L53.217475,20.906198 C53.017475,20.906198 53.017475,20.806198 53.017475,20.706198" id="Fill-7" fill="#8DCEFF" sketch:type="MSShapeGroup"></path>
    <path d="M21.417475,62.006198 C20.917475,62.006198 20.317475,61.506198 20.317475,61.506198 L1.017475,42.206198 C1.017475,42.206198 0.717475,41.906198 0.617475,41.606198 L33.917475,47.606198 L21.417475,62.006198" id="Fill-8" fill="#8DCEFF" sketch:type="MSShapeGroup"></path>
</svg>

<svg width="54" height="63" xmlns="http://www.w3.org/2000/svg"><path d="M.517 41.506s2.8-11.9 6.5-16.9c3-4 13.6-10 13.6-10s9.3 8.9 11.3 13.9c2.4 6 2 19.2 2 19.2s-12.2 2-18.1 1c-5.3-1-15.4-7-15.4-7" fill="#A4D8FF"/><path d="M51.317 50.006l-28.9 11.9s-.5.2-.9.2c0 0 2.7-5.1 4.9-7.7 1.9-2.2 7.6-6.5 7.6-6.5s6.5-1.2 9.6-.9c2.8.3 8.4 2.6 8.4 2.6-.3.2-.7.4-.7.4z" fill="#49AAF3"/><path d="M42.517 48.606c-2.8-.3-8.6-.8-8.6-.8s3.8-7.9 6.6-11.8c3.5-5 12.5-14.9 12.5-14.9.1.3.1.7.1.7l-.7 26.6s0 .8-.5 1.2c0-.1-6.2-.7-9.4-1z" fill="#67BEFE"/><path d="M35.117 23.506c-5.1-1-14.5-8.9-14.5-8.9s1.3-4.4 2.9-6.6c1.9-2.6 7.6-7.8 7.6-7.8.6 0 1 .4 1 .4l20.6 19.7s.2.2.3.5c0-.1-12.3 3.8-17.9 2.7z" fill="#80C9FF"/><path d="M20.317 14.806l-11.2 3.5-8.4-5.9s.2-.4.8-.6l28.5-11.5s.4-.2.9-.1l-10.6 14.6z" fill="#D7F2FF"/><path d="M.817 12.306l19.8 2.2-20.1 26.9s-.1-.2-.1-.5v-27.4s0-.7.4-1.2" fill="#BDE6FF"/><path d="M53.017 20.706l-32.4-6.1 13.4 33.1 19.2-26.8c-.2 0-.2-.1-.2-.2M21.417 62.006c-.5 0-1.1-.5-1.1-.5l-19.3-19.3s-.3-.3-.4-.6l33.3 6-12.5 14.4" fill="#8DCEFF"/></svg>
